X:4768
T:Oh Then dearest Ellen. CJF.203
O:england
M:6/8
L:1/8
Q:60
S: C.J.Fox MS, 1829/33, Beverley,E.Yorks.
R:Air
A:East Yorkshire
B:Kidson Coll.Mitchell Lib.M1805
N:The bar marked with an asterisk has a bar line in the middle in the MS
K:D
"p"a/g/|fdA B<ed|c>BA d<f"f"a|g>ag f>ga|b>B{f/}e {d}c2a/g/|\
{g}f{e}dA B<ed|c>BA (d<f)A|(B/c/)(d/e/)(f/g/) a<f
g/e/|d>ec{e/}d2a|c>dB{B}A2(d/c/)|(B/A/)(B/G/)(e/d/) (c/B/)(c/A/)\
(f/e/)|(d/c/)(d/B/)(g/e/) e<hA A/G/|(F<A) (d/e/) f<a (g/e/)|d>ec
""d2d|g>abha2d|d>cB c<he A/G/|F/A/d/f/a/f/ b>hB g/e/|d>ecd2||


